X: 152
T: Açıldı Nevbahar
C: Sadullah Ağa
O: Turkey
F: http://compmusic.upf.edu/node/140
N: acemasiran--sarki--aksak--acildi_nevbahar--sadullah_aga
N: makam= acemasiran
N: form= sarki
N: usul= aksak = 9/8
M: 9/8
L: 1/16
K: C _B   
Q: 1/4=120
%%MIDI tuningsystem comma53
f2g2 f2e2 f4 b6 | b2 a2a2 g2_7/8a3gf6  | \
w:   |   | 
g2_7/8a2 g2f2 g2a2 c'2_1/4b2 a2 | 
w:   | 
g2 f2f2 _a2g2 f2e2 _7/8d2c2  | f2g2 f2e2 f4 b6 | \
w:   |   | 
b2 a2a2 g2_7/8a3gf6  | 
w:   | 
g2_7/8a2 g2f2 g2a2 c'2_1/4b2 a2 | \
w:   | 
g2 f2f2 _7/8a2gf fef4z2  | f2f4_7/8a2 g2f2 _e2d2 c2 | 
w:   |   | 
c2 B2c2 _e2d2 c2B2 A2G2  | B2A2 B2d2 c2B2 A4 F2 | \
w:   |   | 
_7/8A2 G2F2 E2F2 G=ABc def2  | 
w:   | 
f2f4_7/8a2 g2f2 _e2d2 c2 | c2 B2c2 _e2d2 c2B2 A2G2  | \
w:   |   | 
B2A2 B2d2 c2B2 A4 F2 | 
w:   | 
_7/8A2 G2F2 E2F4F4z2  | f2e2 f2g2 g4 g6 | \
w:   |   | 
g4_7/8a4g2 f2e2 _7/8d2c2  | f2e2 _7/8d2c2 B2A2 B6 | 
w:   |   | 
_7/8a2 g2f2 e2f4g4z2  | f2e2 f2g2 g4 g6 | \
w:   |   | 
g4_7/8a4g2 f2e2 _7/8d2c2  | f2e2 _7/8d2c2 B2A2 B6 | 
w:   |   | 
_7/8a2 g2f2 e2f4f4z2  | f6_7/8a2 g2f2 _e2d2 c2 | \
w:   |   | 
c2 B2c2 _e2d2 c2B2 A2G2  | 
w:   | 
B2A2 B2d2 c2B2 A4 G2 | _7/8A2 G2F2 E2F2 GABc def2  | \
w:   |   | 
f6_7/8a2 g2f2 _e2d2 c2 | 
w:   | 
c2 B2c2 _e2d2 c2B2 A2G2  | B2A2 B2d2 c2B2 A4 G2 | \
w:   |   | 
_7/8A2 G2F2 E2F4F4c4_7/8d4e4f4g2 g2 | 
w:   | 
_7/8a_1/4b agf2 e2f2 g4 z2c4_7/8d4e4f4g2 ag | \
w:   | 
f2 g_1/4b_7/8ag gffe f4 z2c4_7/8d4e4f4g2 g2 | 
w:   | 
_7/8a_1/4b agf2 e2f2 g4 z2c4_7/8d4e4f4g2 ag | \
w:   | 
f2 g_1/4b_7/8ag gffe f4 z2f6 a2g2 f2_e2 d2c2 c2 | 
w:   | 
B2 c2_e2 d2c2 B2A2 G2B2  | A2B2 d2c2 B2A4G2 _7/8A2 | \
w:   |   | 
G2 F2E2 F2G_7/8A Bcde f2f6 _7/8a2g2 f2_e2 d2c2 c2 | 
w:   | 
B2 c2_e2 d2c2 B2A2 G2B2  | A2B2 d2c2 B2A4G2 _7/8A2 | \
w:   |   | 
G2 F2E2 F4 F4 z2f2  | 
w:   | 
g2f2 e2f4b6 b2 | a2 a2g2 _7/8a3g f6g2  | \
w:   |   | 
_7/8a2g2 f2g2 a2c'2 _1/4b2a2 g2 | 
w:   | 
f2 f2_a2 g2f2 e2_7/8d2 c2f2  | g2f2 e2f4b6 b2 | \
w:   |   | 
a2 a2g2 _7/8a3g f6g2  | 
w:   | 
_7/8a2g2 f2g2 a2c'2 _1/4b2a2 g2 | \
w:   | 
f2 f2_7/8a2 gffe f4 z2f2  | f4 _7/8a2g2 f2_e2 d2c2 c2 | 
w:   |   | 
B2 c2_e2 d2c2 B2A2 G2B2  | A2B2 d2c2 B2A4F2 _7/8A2 | \
w:   |   | 
G2 F2E2 F2GA Bcde f2f2  | 
w:   | 
f4 _7/8a2g2 f2_e2 d2c2 c2 | B2 c2_e2 d2c2 B2A2 G2B2  | \
w:   |   | 
A2B2 d2c2 B2A4F2 _7/8A2 | 
w:   | 
G2 F2E2 F4 F4 z2f2  | e2f2 g2g4g6 g4 _7/8a4 g2f2 e2_7/8d2 c2f2  | \
w:   |   | 
e2_7/8d2 c2B2 A2B6 _7/8a2 | 
w:   | 
g2 f2e2 f4 g4 z2f2  | e2f2 g2g4g6 g4 _7/8a4 g2f2 e2_7/8d2 c2f2  | \
w:   |   | 
e2_7/8d2 c2B2 A2B6 _7/8a2 | 
w:   | 
g2 f2e2 f4 f4 z2f6 _7/8a2g2 f2_e2 d2c2 c2 | \
w:   | 
B2 c2_e2 d2c2 B2A2 G2B2  | 
w:   | 
A2B2 d2c2 B2A4G2 _7/8A2 | G2 F2E2 F2G_7/8A Bcde f2f6 _7/8a2g2 f2_e2 d2c2 c2 | 
w:   |   | 
B2 c2_e2 d2c2 B2A2 G2B2  | A2B2 d2c2 B2A4G2 _7/8A2 | \
w:   |   | 
G2 F2E2 F4 F4 |
w:   | 


